resources/svg/html5.svg

<svg viewBox="0 0 24 24"><path fill="none" stroke="currentColor" stroke-width="2" d="M3 2h18v16l-9 4l-9-4V2zm14 4H8v5h8v5l-4 1.5L8 16v-2"/></svg>

<svg xmlns="http://www.w3.org/2000/svg" viewBox="0 0 24 24" fill="currentColor"><path fill="none" stroke="currentColor" stroke-width="2" d="M3,2 L21,2 L21,18 L12,22 L3,18 L3,2 Z M17,6 L8,6 L8,11 L16,11 L16,16 L12,17.5 L8,16 L8,14"/></svg>
